src/icons/check-circle-fill.svg

<svg viewBox="0 0 24 24" fill="none" xmlns="http://www.w3.org/2000/svg">
<path fill-rule="evenodd" clip-rule="evenodd" d="M12 22C17.5228 22 22 17.5228 22 12C22 6.47715 17.5228 2 12 2C6.47715 2 2 6.47715 2 12C2 17.5228 6.47715 22 12 22ZM11.8415 16.4438C11.6011 16.7998 11.2732 17 10.8689 17C10.4754 17 10.1585 16.8331 9.86339 16.4438L7.27322 13.2403C7.09836 13.0067 7 12.762 7 12.495C7 11.9388 7.4153 11.505 7.95082 11.505C8.27869 11.505 8.54098 11.6274 8.80328 11.9722L10.8361 14.6085L15.153 7.55617C15.3825 7.17798 15.6776 7 16.0055 7C16.5191 7 17 7.36707 17 7.91212C17 8.16796 16.8689 8.43493 16.7268 8.66852L11.8415 16.4438Z" fill="currentColor"/>
</svg>

<svg viewBox="0 0 24 24" fill="none" xmlns="http://www.w3.org/2000/svg"><path fill-rule="evenodd" clip-rule="evenodd" d="M12 22c5.523 0 10-4.477 10-10S17.523 2 12 2 2 6.477 2 12s4.477 10 10 10zm-.159-5.556c-.24.356-.568.556-.972.556-.394 0-.71-.167-1.006-.556l-2.59-3.204c-.175-.233-.273-.478-.273-.745 0-.556.415-.99.95-.99.329 0 .591.122.853.467l2.033 2.636 4.317-7.052c.23-.378.525-.556.853-.556.513 0 .994.367.994.912 0 .256-.131.523-.273.757l-4.886 7.775z" fill="currentColor"/></svg>
